X:1
T:Title
%%score { 1 | ( 2 3 ) }
L:1/8
Q:1/4=100
M:4/4
K:Eb
V:1 treble nm="Grand Piano"
V:2 bass 
V:3 bass 
V:1
 G2 G2 G2 [GB]2 | [GB]3 [FA] [FA]4 | [FA]2 [DF]2 [DAc]3 [DAB] | [EGB]4 [EG]4 | G2 B2 A2 G2 | %5
w: T.~Frank~Allen * * *|||||
 c2 c2 c2 e2 | d2 c2 B2 =A2 | [DB]8 | G2 G2 G2 G2 | [GB]3 [FA] [EG]4 | [DF]2 [Ac]2 [GB]2 [FA]2 | %11
w: ||||||
 G4 B4 | G2 G2 G2 [EG]2 | [EA]3 [EB] [Ec]4 | [DB]2 [DB]2 D3 D | E8 |] %16
w: |||||
V:2
 [E,B,E]2 [E,B,E]2 [E,B,E]2 [E,B,]2 | [B,,B,]3 [B,,B,] [B,,B,]4 | [B,,B,]2 [B,,B,]2 B,,3 B,, | %3
 z4 B,4 | [E,B,E]2 [G,B,E]2 [F,B,D]2 [E,B,E]2 | [A,E]2 [G,B,=E]2 [F,F]2- [F,CF]2 | %6
 [B,F]2[K:bass] [E,G,E]2 [F,D]2 [F,CE]2 | [B,,B,]8 | [E,B,E]2 [E,B,E]2 [E,B,E]2 [E,B,E]2 | %9
 [E,B,]3 [E,B,] [E,B,]4 | [B,,B,]2 [B,,B,]2 [B,,B,]2 [B,,B,]2 | [B,E]4 z4 | %12
 [E,B,E]2 [E,B,E]2 [E,B,E]2 [_D,B,]2 | [C,A,]3 [B,,G,] [A,,A,]4 | %14
 [B,,F,]2 [B,,F,]2 [B,,A,B,]3 [B,,A,B,] | [E,G,B,]8 |] %16
V:3
 x8 | x8 | x8 | E,8 | x8 | z4 A,2 z2 | x2[K:bass] x6 | x8 | x8 | x8 | x8 | E,4- [E,EG]4 | x8 | x8 | %14
 x8 | x8 |] %16

